picto/bistro.svg

<svg class="color-immutable" width="24" height="24" viewBox="0 0 24 24" fill="none" xmlns="http://www.w3.org/2000/svg"><g clip-path="url(#a)"><path d="M0 22.5v-21C0 .675.675 0 1.5 0h21c.825 0 1.5.675 1.5 1.5v21c0 .825-.675 1.5-1.5 1.5h-21C.675 24 0 23.325 0 22.5Z" fill="#2D327D"/><path d="M10.5 20.25c0 .414.336.75.75.75h9a.75.75 0 0 0 .75-.75v-.375H10.5v.375ZM18.75 12h-5.625a.375.375 0 0 0-.375.375v6c0 .414.336.75.75.75H18a.75.75 0 0 0 .75-.75V16.5a2.25 2.25 0 0 0 0-4.5Zm.005 3.75h-.005v-3h.005a1.5 1.5 0 0 1 0 3ZM9.375 7.5h-6A.375.375 0 0 0 3 7.875V12a3.004 3.004 0 0 0 2.812 2.998v4.877H3.375A.375.375 0 0 0 3 20.25v.375c0 .207.168.375.375.375h6a.375.375 0 0 0 .375-.375v-.375a.375.375 0 0 0-.375-.375H6.938v-4.877A3.004 3.004 0 0 0 9.75 12V7.875a.375.375 0 0 0-.375-.375Z" fill="#fff"/></g><defs><clipPath id="a"><path fill="#fff" d="M0 0h24v24H0z"/></clipPath></defs></svg>

<svg class="color-immutable" width="24" height="24" viewBox="0 0 24 24" fill="none" xmlns="http://www.w3.org/2000/svg"><path d="M0 22.5V1.5C0 0.675 0.675 0 1.5 0H22.5C23.325 0 24 0.675 24 1.5V22.5C24 23.325 23.325 24 22.5 24H1.5C0.675 24 0 23.325 0 22.5Z" fill="#2D327D"/><path d="M10.5 20.25C10.5 20.664 10.836 21 11.25 21H20.25C20.664 21 21 20.664 21 20.25V19.875H10.5V20.25Z" fill="white"/><path d="M18.75 12H13.125C12.918 12 12.75 12.168 12.75 12.375V18.375C12.75 18.789 13.086 19.125 13.5 19.125H18C18.414 19.125 18.75 18.789 18.75 18.375V16.5C19.992 16.5 21 15.492 21 14.25C21 13.008 19.992 12 18.75 12ZM18.755 15.75C18.753 15.75 18.751 15.75 18.75 15.75V12.75C18.752 12.75 18.754 12.75 18.755 12.75C19.583 12.75 20.255 13.422 20.255 14.25C20.255 15.078 19.583 15.75 18.755 15.75Z" fill="white"/><path d="M9.375 7.5H3.375C3.168 7.5 3 7.668 3 7.875V12C3 13.585 4.231 14.897 5.812 14.998V19.875H3.375C3.168 19.875 3 20.043 3 20.25V20.625C3 20.832 3.168 21 3.375 21H9.375C9.582 21 9.75 20.832 9.75 20.625V20.25C9.75 20.043 9.582 19.875 9.375 19.875H6.938V14.998C8.519 14.897 9.75 13.585 9.75 12V7.875C9.75 7.668 9.582 7.5 9.375 7.5Z" fill="white"/></svg>
